X: 15912
T: Grand Spey, The
R: reel
M: 4/4
K: Cmajor
|:EGcG AGcG|EGcG EDDG|EGcG AGcG|EGDF ECC2|
EGcG AGcG|EGcG EDDG|EGAB cdef|1 gefd eccG:|2 gefd ecc2||
|:e3c d3c|AcGc AcGc|e3c d3c|AcGE ED D2|
e3c d3c|AcGc AcGc|eaag egdc|AcGF ECC2:|
|:egge c3d|eaag aged|e/f/g ed c3G|AcGE ED D2|
egge c3d|eaag aged|e/f/g ed c3G|AcGF EC C2|
egge c3d|eaag aged|e/f/g ed c3d|eaag eg d2|
egge c3d|eaag aged|e/f/g ed c3G|AcGF EC C2||

